frontend/src/assets/mtgIcons/14.svg

<?xml version="1.0" encoding="UTF-8" standalone="no"?>
<!-- Created with Inkscape (http://www.inkscape.org/) -->

<svg
   xmlns:dc="http://purl.org/dc/elements/1.1/"
   xmlns:cc="http://creativecommons.org/ns#"
   xmlns:rdf="http://www.w3.org/1999/02/22-rdf-syntax-ns#"
   xmlns:svg="http://www.w3.org/2000/svg"
   xmlns="http://www.w3.org/2000/svg"
   xmlns:inkscape="http://www.inkscape.org/namespaces/inkscape"
   version="1.1"
   width="600"
   height="600"
   id="svg3935">
  <defs
     id="defs3937" />
  <metadata
     id="metadata3940">
    <rdf:RDF>
      <cc:Work
         rdf:about="">
        <dc:format>image/svg+xml</dc:format>
        <dc:type
           rdf:resource="http://purl.org/dc/dcmitype/StillImage" />
        <dc:title />
      </cc:Work>
    </rdf:RDF>
  </metadata>
  <g
     transform="translate(-204.8627,26.786213)"
     id="layer1">
    <g
       transform="matrix(6,0,0,6,3354.8627,603.22578)"
       id="g93">
      <circle
         cx="-475"
         cy="-55.001999"
         r="50"
         id="circle95"
         style="fill:#cac5c0" />
    </g>
    <path
       d="M 422.7108,90.051797 V 384.36981 c 0,34.734 14.56202,52.10398 43.65606,52.10398 h 6.92396 V 456.4058 H 316.91887 v -19.93201 h 9.97796 c 29.62801,0 44.44201,-17.36998 44.44201,-52.10398 v -193.146 c 0,-35.27403 -12.54003,-52.896 -37.55402,-52.896 h -15.34198 v -19.92003 h 6.13795 c 30.12602,0 57.47404,-9.44401 81.99004,-28.349978 l 16.13997,-0.0067 0,0 z M 680.99282,352.17377 v 30.65405 c 0,34.24198 11.97601,51.36596 36.01797,51.36596 h 9.94804 v 19.89601 H 580.57082 v -19.89601 h 11.50801 c 24.01797,0 36.024,-16.878 36.024,-50.57999 V 352.17377 H 480.93482 V 321.51979 L 636.52684,94.635783 h 44.47202 V 326.10378 h 3.83395 c 14.82,0 25.79399,-11.71802 32.93399,-35.23803 h 18.39603 l -9.19799,61.31403 -45.97202,-0.007 0,0 z M 640.35481,321.51979 V 128.38581 L 510.05882,321.51979 h 130.29599 z"
       inkscape:connector-curvature="0"
       id="path97"
       style="fill:#0d0f0f" />
  </g>
</svg>

<svg xmlns="http://www.w3.org/2000/svg" width="600" height="600">
  <circle cx="-475" cy="-55.002" r="50" style="fill:#cac5c0" transform="matrix(6 0 0 6 3150 630.012)"/>
  <path d="M422.7108 90.0518v294.318c0 34.734 14.562 52.104 43.656 52.104h6.924v19.932h-156.372v-19.932h9.978c29.628 0 44.442-17.37 44.442-52.104v-193.146c0-35.274-12.54-52.896-37.554-52.896h-15.342v-19.92h6.138c30.126 0 57.474-9.444 81.99-28.35l16.14-.0067zm258.282 262.122v30.654c0 34.242 11.976 51.366 36.018 51.366h9.948v19.896h-146.388v-19.896h11.508c24.018 0 36.024-16.878 36.024-50.58v-31.44h-147.168v-30.654l155.592-226.884h44.472v231.468h3.834c14.82 0 25.794-11.718 32.934-35.238h18.396l-9.198 61.314-45.972-.007zm-40.638-30.654v-193.134l-130.296 193.134h130.296z" style="fill:#0d0f0f" transform="translate(-204.8627 26.7862)"/>
</svg>
